icons/arrow-reverse-topleft.svg

<svg width="24" height="24" viewBox="0 0 24 24" fill="none" xmlns="http://www.w3.org/2000/svg">
<path fill-rule="evenodd" clip-rule="evenodd" d="M9.828 14.9304C9.53511 15.2232 9.06023 15.2232 8.76734 14.9304L5.36734 11.5304C5.09682 11.2598 4.92267 10.9007 4.92267 10.5C4.92267 10.0993 5.09682 9.74021 5.36734 9.46969L8.76734 6.06969C9.06023 5.7768 9.53511 5.7768 9.828 6.06969C10.1209 6.36259 10.1209 6.83746 9.828 7.13035L6.45833 10.5L9.828 13.8697C10.1209 14.1626 10.1209 14.6375 9.828 14.9304Z" fill="black"/>
<path fill-rule="evenodd" clip-rule="evenodd" d="M18.3977 18.15C17.9835 18.15 17.6477 17.8142 17.6477 17.4L18.3977 17.4C17.6477 17.4 17.6477 17.3997 17.6477 17.4L17.6476 17.392C17.6474 17.383 17.6471 17.3676 17.6464 17.3464C17.645 17.304 17.6421 17.2383 17.6359 17.1527C17.6237 16.9812 17.5988 16.7314 17.5485 16.4296C17.4473 15.8224 17.2464 15.0244 16.8519 14.2354C16.4589 13.4494 15.8811 12.6862 15.0286 12.1178C14.1807 11.5526 13.0165 11.15 11.3977 11.15L5.60239 11.15L5.60235 9.65002L11.3977 9.65002C13.2789 9.65002 14.7397 10.1225 15.8606 10.8697C16.9768 11.6139 17.7115 12.6006 18.1935 13.5646C18.674 14.5257 18.9106 15.4776 19.0281 16.183C19.0872 16.5374 19.117 16.8345 19.1321 17.0458C19.1397 17.1516 19.1436 17.2363 19.1456 17.2964C19.1466 17.3265 19.1471 17.3504 19.1474 17.3678L19.1477 17.389L19.1477 17.3958L19.1477 17.3982C19.1477 17.3987 19.1477 17.4 18.3977 17.4L19.1477 17.4C19.1477 17.8142 18.8119 18.15 18.3977 18.15Z" fill="black"/>
</svg>

<svg xmlns="http://www.w3.org/2000/svg" fill="none" viewBox="0 0 24 24">
  <path fill="#000" fill-rule="evenodd" d="M9.828 14.93a.75.75 0 0 1-1.06 0l-3.4-3.4c-.271-.27-.445-.63-.445-1.03s.174-.76.444-1.03l3.4-3.4a.75.75 0 0 1 1.061 1.06l-3.37 3.37 3.37 3.37a.75.75 0 0 1 0 1.06Z" clip-rule="evenodd"/>
  <path fill="#000" fill-rule="evenodd" d="M18.398 18.15a.75.75 0 0 1-.75-.75h.75-.75v-.008c0-.009 0-.024-.002-.046a7.822 7.822 0 0 0-.098-.917 7.853 7.853 0 0 0-.696-2.194c-.393-.786-.97-1.549-1.823-2.117-.848-.565-2.012-.968-3.631-.968H5.602v-1.5h5.796c1.88 0 3.342.473 4.463 1.22 1.116.744 1.85 1.73 2.332 2.695a9.35 9.35 0 0 1 .835 2.618 9.33 9.33 0 0 1 .118 1.113l.001.072v.03s0 .002-.75.002h.75a.75.75 0 0 1-.75.75Z" clip-rule="evenodd"/>
</svg>
